public/assets/images/home/features-section/icons/icon-2.svg

<svg id="edv7CQ5zmBj1" xmlns="http://www.w3.org/2000/svg" xmlns:xlink="http://www.w3.org/1999/xlink" viewBox="0 0 60 60" shape-rendering="geometricPrecision" text-rendering="geometricPrecision" project-id="71f2c9ffb6a74cb58db8938642805cd3" export-id="a299921962f745e3b8055b7972f32d19" cached="false">
<style><![CDATA[
#edv7CQ5zmBj2_ts {animation: edv7CQ5zmBj2_ts__ts 3000ms linear infinite normal forwards}@keyframes edv7CQ5zmBj2_ts__ts { 0% {transform: translate(29.9935px,30.005699px) scale(0.5,0.5)} 33.333333% {transform: translate(29.9935px,30.005699px) scale(1,1)} 100% {transform: translate(29.9935px,30.005699px) scale(1,1)}} #edv7CQ5zmBj2 {animation: edv7CQ5zmBj2_s_do 3000ms linear infinite normal forwards}@keyframes edv7CQ5zmBj2_s_do { 0% {stroke-dashoffset: 91.92} 33.333333% {stroke-dashoffset: 0} 100% {stroke-dashoffset: 0}} #edv7CQ5zmBj3_ts {animation: edv7CQ5zmBj3_ts__ts 3000ms linear infinite normal forwards}@keyframes edv7CQ5zmBj3_ts__ts { 0% {transform: translate(29.8976px,29.858199px) scale(0.5,0.5)} 33.333333% {transform: translate(29.8976px,29.858199px) scale(1,1)} 100% {transform: translate(29.8976px,29.858199px) scale(1,1)}} #edv7CQ5zmBj3 {animation-name: edv7CQ5zmBj3_c_o, edv7CQ5zmBj3_s_do;animation-duration: 3000ms;animation-fill-mode: forwards;animation-timing-function: linear;animation-direction: normal;animation-iteration-count: infinite;}@keyframes edv7CQ5zmBj3_c_o { 0% {opacity: 0} 33.333333% {opacity: 1} 100% {opacity: 1}}@keyframes edv7CQ5zmBj3_s_do { 0% {stroke-dashoffset: 19.74} 50% {stroke-dashoffset: 0} 100% {stroke-dashoffset: 0}} #edv7CQ5zmBj4_ts {animation: edv7CQ5zmBj4_ts__ts 3000ms linear infinite normal forwards}@keyframes edv7CQ5zmBj4_ts__ts { 0% {transform: translate(30.0089px,29.994274px) scale(0.5,0.5)} 33.333333% {transform: translate(30.0089px,29.994274px) scale(1,1)} 100% {transform: translate(30.0089px,29.994274px) scale(1,1)}} #edv7CQ5zmBj4 {animation: edv7CQ5zmBj4_c_o 3000ms linear infinite normal forwards}@keyframes edv7CQ5zmBj4_c_o { 0% {opacity: 0} 33.333333% {opacity: 1} 100% {opacity: 1}}
]]></style>
<g id="edv7CQ5zmBj2_ts" transform="translate(29.9935,30.005699) scale(0.5,0.5)"><path id="edv7CQ5zmBj2" d="M29.9991,15.3755c-8.0667,0-14.6358,6.5578-14.6358,14.6245s6.5691,14.6359,14.6358,14.6359c8.0668,0,14.6246-6.5692,14.6246-14.6359s-6.5578-14.6245-14.6246-14.6245Z" transform="translate(-29.9935,-30.005699)" fill="none" stroke="#00aeef" stroke-width="2" stroke-linecap="round" stroke-linejoin="round" stroke-dashoffset="91.92" stroke-dasharray="91.92"/></g><g id="edv7CQ5zmBj3_ts" transform="translate(29.8976,29.858199) scale(0.5,0.5)"><path id="edv7CQ5zmBj3" d="M22.8633,29.8866l4.6857,4.5949l9.3829-9.2466" transform="translate(-29.8976,-29.858199)" opacity="0" fill="none" stroke="#00aeef" stroke-width="2" stroke-linecap="round" stroke-linejoin="round" stroke-dashoffset="19.74" stroke-dasharray="19.74"/></g><g id="edv7CQ5zmBj4_ts" transform="translate(30.0089,29.994274) scale(0.5,0.5)"><path id="edv7CQ5zmBj4" d="M32.6922,3.70078l5.0601,5.68416c.3404.38575.8396.58997,1.3501.55593l7.6016-.44248c2.1443-.1248,3.9256,1.64511,3.8008,3.80081l-.4425,7.6015c-.034.5106.1815,1.0098.556,1.3502l5.6841,5.0601c1.5997,1.4296,1.5997,3.937,0,5.3665l-5.6841,5.0602c-.3858.3403-.59.8395-.556,1.3501l.4425,7.6016c.1248,2.1443-1.6451,3.9255-3.8008,3.8007l-7.6016-.4424c-.5105-.0341-1.0097.1815-1.3501.5559l-5.0601,5.6842c-1.4296,1.5997-3.937,1.5997-5.3665,0l-5.0602-5.6842c-.3403-.3857-.8396-.59-1.3501-.5559l-7.6016.4424c-2.1443.1248-3.92556-1.6451-3.80076-3.8007l.44248-7.6016c.03404-.5106-.18153-1.0098-.55593-1.3501L3.71543,32.6775c-1.59974-1.4295-1.59974-3.9369,0-5.3665l5.68416-5.0601c.38575-.3404.58997-.8396.55593-1.3502l-.44248-7.6015c-.1248-2.1443,1.64516-3.92561,3.80076-3.80081l7.6016.44248c.5105.03404,1.0098-.18153,1.3501-.55593l5.0602-5.68416c1.4295-1.59974,3.9369-1.59974,5.3665,0Z" transform="translate(-30.0089,-29.994274)" opacity="0" fill="none" stroke="#00aeef" stroke-width="2" stroke-linecap="round" stroke-linejoin="round"/></g></svg>

<svg width="60" height="60" viewBox="0 0 60 60" fill="none" xmlns="http://www.w3.org/2000/svg">
<path d="M29.9991 15.3755C21.9324 15.3755 15.3633 21.9333 15.3633 30C15.3633 38.0667 21.9324 44.6359 29.9991 44.6359C38.0659 44.6359 44.6237 38.0667 44.6237 30C44.6237 21.9333 38.0659 15.3755 29.9991 15.3755Z" stroke="#00AEEF" stroke-width="2" stroke-linecap="round" stroke-linejoin="round"/>
<path d="M22.8633 29.8866L27.549 34.4815L36.9319 25.2349" stroke="#00AEEF" stroke-width="2" stroke-linecap="round" stroke-linejoin="round"/>
<path d="M32.6922 3.70078L37.7523 9.38494C38.0927 9.77069 38.5919 9.97491 39.1024 9.94087L46.704 9.49839C48.8483 9.37359 50.6296 11.1435 50.5048 13.2992L50.0623 20.9007C50.0283 21.4113 50.2438 21.9105 50.6183 22.2509L56.3024 27.311C57.9021 28.7406 57.9021 31.248 56.3024 32.6775L50.6183 37.7377C50.2325 38.078 50.0283 38.5772 50.0623 39.0878L50.5048 46.6894C50.6296 48.8337 48.8597 50.6149 46.704 50.4901L39.1024 50.0477C38.5919 50.0136 38.0927 50.2292 37.7523 50.6036L32.6922 56.2878C31.2626 57.8875 28.7552 57.8875 27.3257 56.2878L22.2655 50.6036C21.9252 50.2179 21.4259 50.0136 20.9154 50.0477L13.3138 50.4901C11.1695 50.6149 9.38824 48.845 9.51304 46.6894L9.95552 39.0878C9.98956 38.5772 9.77399 38.078 9.39959 37.7377L3.71543 32.6775C2.11569 31.248 2.11569 28.7406 3.71543 27.311L9.39959 22.2509C9.78534 21.9105 9.98956 21.4113 9.95552 20.9007L9.51304 13.2992C9.38824 11.1549 11.1582 9.37359 13.3138 9.49839L20.9154 9.94087C21.4259 9.97491 21.9252 9.75934 22.2655 9.38494L27.3257 3.70078C28.7552 2.10104 31.2626 2.10104 32.6922 3.70078Z" stroke="#00AEEF" stroke-width="2" stroke-linecap="round" stroke-linejoin="round"/>
</svg>
